src/assets/payments/umoney-icon.svg

<svg width="203" height="45" viewBox="0 0 203 45" fill="none" xmlns="http://www.w3.org/2000/svg">
<path d="M177.568 22.6294C177.568 17.1099 173.402 12.645 167.517 12.645C161.749 12.645 157.642 16.9383 157.642 22.8375C157.642 28.7663 161.865 33.0891 167.925 33.0891C171.77 33.0891 175.004 31.365 177.014 27.8606L172.936 25.9622C171.975 27.7144 169.877 28.8535 167.925 28.8535C165.449 28.8535 162.595 26.9846 162.419 24.3858H177.422C177.518 23.8052 177.567 23.2178 177.568 22.6294ZM162.506 20.9419C162.857 18.3136 164.663 16.591 167.547 16.591C170.401 16.591 172.149 18.2785 172.382 20.9419H162.506Z" fill="white"/>
<path d="M121.41 12.6406C115.496 12.6406 111.302 16.9058 111.302 22.9217C111.302 28.8786 115.496 33.0847 121.469 33.0847C127.47 33.0847 131.664 28.8786 131.664 23.0089C131.664 16.9634 127.354 12.6406 121.41 12.6406ZM121.469 28.6156C118.497 28.6156 116.662 26.3966 116.662 22.9498C116.662 19.4455 118.526 17.0506 121.469 17.0506C124.44 17.0506 126.304 19.4159 126.304 22.9498C126.304 26.4261 124.47 28.6156 121.469 28.6156Z" fill="white"/>
<path d="M100.352 12.6463C97.9294 12.6463 96.1044 13.476 94.2794 15.5334H93.6804C92.4544 13.6757 90.454 12.6463 88.2096 12.6463C87.089 12.6354 85.9818 12.8914 84.9792 13.3933C83.9766 13.8952 83.1072 14.6287 82.4427 15.5334H81.8438L81.8143 15.5052V13.0471H76.8008V32.6559H82.2183V22.5646C82.2183 19.3063 83.5874 17.391 85.9539 17.391C88.1493 17.391 89.5745 19.0209 89.5745 21.5071V32.6559H95.0201V22.5646C95.0201 19.3302 96.3892 17.391 98.7851 17.391C100.951 17.391 102.348 19.0209 102.348 21.5366V32.6559H107.795V20.8785C107.795 15.7626 105.057 12.6463 100.352 12.6463Z" fill="white"/>
<path d="M189.615 25.8553H189.228C189.228 25.5066 186.865 19.2966 185.317 15.4491L184.349 13.043H178.891L186.634 32.7206L183.583 40.2188H189.003L200.154 13.05H194.693L193.802 15.1073L190.782 22.5984C189.93 24.6909 189.581 25.6613 189.615 25.8553Z" fill="white"/>
<path d="M146.69 12.6465C144.266 12.6465 142.184 13.704 140.787 15.5912H140.216L140.16 15.563V13.0473H135.144V32.656H140.561V22.6224C140.561 19.4218 142.104 17.4193 144.639 17.4193C147.005 17.4193 148.745 19.1912 148.745 21.9924V32.6546H154.162V20.8224C154.162 16.0201 151.026 12.6465 146.69 12.6465Z" fill="white"/>
<path d="M40.0069 1.40625C28.3021 1.40625 18.8965 10.8984 18.8965 22.5C18.8965 34.1972 28.3947 43.5938 40.0041 43.5938C51.6135 43.5938 61.1201 34.1016 61.1201 22.5C61.1201 10.8984 51.6163 1.40625 40.0069 1.40625ZM40.0069 30.3623C35.6891 30.3623 32.1401 26.8144 32.1401 22.5C32.1401 18.1856 35.6891 14.6377 40.0069 14.6377C44.3246 14.6377 47.8751 18.1856 47.8751 22.5C47.7783 26.8144 44.3246 30.3623 40.0069 30.3623Z" fill="#8B3FFD"/>
<path d="M18.8969 7.53467V38.2162H11.4173L1.82227 7.53467H18.8969Z" fill="#8B3FFD"/>
</svg>

<svg xmlns="http://www.w3.org/2000/svg" width="203" height="45" fill="none" viewBox="0 0 203 45">
    <path fill="#fff" d="M177.568 22.63c0-5.52-4.166-9.985-10.051-9.985-5.768 0-9.875 4.293-9.875 10.192 0 5.93 4.223 10.252 10.283 10.252 3.845 0 7.079-1.724 9.089-5.228l-4.078-1.899c-.961 1.752-3.059 2.892-5.011 2.892-2.476 0-5.33-1.87-5.506-4.468h15.003c.096-.58.145-1.168.146-1.757Zm-15.062-1.688c.351-2.628 2.157-4.351 5.041-4.351 2.854 0 4.602 1.688 4.835 4.35h-9.876ZM121.41 12.64c-5.914 0-10.108 4.266-10.108 10.282 0 5.957 4.194 10.163 10.167 10.163 6.001 0 10.195-4.206 10.195-10.076 0-6.046-4.31-10.368-10.254-10.368Zm.059 15.976c-2.972 0-4.807-2.22-4.807-5.666 0-3.505 1.864-5.9 4.807-5.9 2.971 0 4.835 2.366 4.835 5.9 0 3.476-1.834 5.666-4.835 5.666ZM100.352 12.646c-2.423 0-4.248.83-6.073 2.887h-.599c-1.226-1.857-3.226-2.887-5.47-2.887a7.063 7.063 0 0 0-5.767 2.887h-.6l-.029-.028v-2.458h-5.013v19.609h5.417V22.565c0-3.259 1.37-5.174 3.736-5.174 2.195 0 3.62 1.63 3.62 4.116v11.149h5.446V22.565c0-3.235 1.37-5.174 3.765-5.174 2.166 0 3.563 1.63 3.563 4.146v11.119h5.447V20.879c0-5.116-2.738-8.233-7.443-8.233ZM189.615 25.855h-.387c0-.348-2.363-6.558-3.911-10.406l-.968-2.406h-5.458l7.743 19.678-3.051 7.498h5.42l11.151-27.169h-5.461l-.891 2.057-3.02 7.491c-.852 2.093-1.201 3.063-1.167 3.257ZM146.69 12.646c-2.424 0-4.506 1.058-5.903 2.945h-.571l-.056-.028v-2.516h-5.016v19.609h5.417V22.622c0-3.2 1.543-5.203 4.078-5.203 2.366 0 4.106 1.772 4.106 4.573v10.663h5.417V20.822c0-4.802-3.136-8.175-7.472-8.175Z"/>
    <path fill="#8B3FFD" d="M40.007 1.406c-11.705 0-21.11 9.492-21.11 21.094 0 11.697 9.498 21.094 21.107 21.094 11.61 0 21.116-9.492 21.116-21.094S51.616 1.406 40.007 1.406Zm0 28.956c-4.318 0-7.867-3.548-7.867-7.862s3.55-7.862 7.867-7.862c4.318 0 7.868 3.548 7.868 7.862-.097 4.314-3.55 7.862-7.868 7.862ZM18.897 7.535v30.681h-7.48L1.822 7.535h17.075Z"/>
</svg>
